cc-by-sa/knowledge/modules/using_type/lessons/introducing_parametric_axes/images/introducing_parametric_axes_1.svg

<svg width="1920" height="1080" fill="none" xmlns="http://www.w3.org/2000/svg"><g opacity=".33" fill="#3C4043"><path d="M48.406 331.867h58.952v188.121h309.89V331.867h58.429v438.422h-58.429V568.585h-309.89v201.704H48.406V331.867ZM553.932 604.649a147.065 147.065 0 0 1 14.074-66.263 146.791 146.791 0 0 1 42.267-52.88 227.198 227.198 0 0 1 149.726-46.508 229.806 229.806 0 0 1 150.248 46.508 146.786 146.786 0 0 1 42.273 52.88 147.039 147.039 0 0 1 14.074 66.263v9.406a147.025 147.025 0 0 1-14.074 66.259 146.78 146.78 0 0 1-42.273 52.881 229.812 229.812 0 0 1-150.248 46.508 227.204 227.204 0 0 1-149.726-46.508 146.786 146.786 0 0 1-42.267-52.881 147.051 147.051 0 0 1-14.074-66.259v-9.406Zm57.908 9.406a110.415 110.415 0 0 0 9.476 46.469 110.243 110.243 0 0 0 28.084 38.184 195.417 195.417 0 0 0 110.86 34.5 195.414 195.414 0 0 0 110.86-34.5 109.736 109.736 0 0 0 27.855-38.232 109.87 109.87 0 0 0 9.19-46.421v-9.406a109.888 109.888 0 0 0-9.19-46.425 109.712 109.712 0 0 0-27.855-38.228 195.407 195.407 0 0 0-110.86-34.5 195.41 195.41 0 0 0-110.86 34.5 110.23 110.23 0 0 0-28.084 38.183 110.416 110.416 0 0 0-9.476 46.47v9.406ZM1037.54 300h56.87v209.021a188.871 188.871 0 0 1 65.72-49.203 188.592 188.592 0 0 1 80.35-16.639 164.648 164.648 0 0 1 112.16 34.49 150.136 150.136 0 0 1 32.04 54.064 150.227 150.227 0 0 1 7.09 62.464v177.146h-56.86V593.674a95.761 95.761 0 0 0-5.24-42.776 95.617 95.617 0 0 0-23.45-36.13 126.643 126.643 0 0 0-81.91-24.035 139.651 139.651 0 0 0-76.17 20.377 172.406 172.406 0 0 0-52.17 52.255v209.021h-56.86L1037.54 300ZM1460.12 604.641a147.078 147.078 0 0 1 14.07-66.263 146.683 146.683 0 0 1 42.27-52.88 265.207 265.207 0 0 1 149.98-46.492c53.53 0 105.82 16.206 149.99 46.492a146.788 146.788 0 0 1 42.27 52.88 146.954 146.954 0 0 1 14.08 66.263v9.406a146.944 146.944 0 0 1-14.08 66.26 146.788 146.788 0 0 1-42.27 52.88 265.239 265.239 0 0 1-149.99 46.492 265.207 265.207 0 0 1-149.98-46.492 146.683 146.683 0 0 1-42.27-52.88 147.068 147.068 0 0 1-14.07-66.26v-9.406Zm57.9 9.406a110.43 110.43 0 0 0 9.48 46.469 110.236 110.236 0 0 0 28.08 38.184 195.438 195.438 0 0 0 110.86 34.5 195.39 195.39 0 0 0 110.86-34.5 110.137 110.137 0 0 0 28.09-38.184 110.43 110.43 0 0 0 9.48-46.469v-9.406a110.43 110.43 0 0 0-9.48-46.469 110.128 110.128 0 0 0-28.09-38.184 195.39 195.39 0 0 0-110.86-34.5c-39.58 0-78.24 12.031-110.86 34.5a110.226 110.226 0 0 0-28.08 38.184 110.43 110.43 0 0 0-9.48 46.469v9.406Z"/></g><g opacity=".66" fill="#3C4043"><path d="M48.406 331.867h58.952v188.121h224.331V331.867h58.43v438.422h-58.43V568.585H107.358v201.704H48.406V331.867ZM468.373 604.654c-1.875-43.516 12.857-86.117 41.21-119.143a156.372 156.372 0 0 1 110.338-45.586 156.39 156.39 0 0 1 110.344 45.586c28.353 33.026 43.084 75.627 41.209 119.143v9.406c1.875 43.517-12.856 86.114-41.209 119.14a156.39 156.39 0 0 1-110.344 45.586A156.372 156.372 0 0 1 509.583 733.2c-28.353-33.026-43.085-75.623-41.21-119.14v-9.406Zm57.908 9.406a147.017 147.017 0 0 0 23.473 84.653 79.338 79.338 0 0 0 30.434 26.437 79.179 79.179 0 0 0 39.471 8.05 80.24 80.24 0 0 0 39.701-8.056 80.387 80.387 0 0 0 30.733-26.431 147.01 147.01 0 0 0 23.474-84.653v-9.406a147.01 147.01 0 0 0-23.474-84.653 80.395 80.395 0 0 0-30.733-26.434 80.24 80.24 0 0 0-39.701-8.056 79.179 79.179 0 0 0-39.471 8.05 79.345 79.345 0 0 0-30.434 26.44 147.017 147.017 0 0 0-23.473 84.653v9.406ZM842.424 300h56.87v188.117a125.207 125.207 0 0 1 43.298-33.44 131.8 131.8 0 0 1 57.385-12.544 104.253 104.253 0 0 1 74.083 27.696 123.508 123.508 0 0 1 24.07 43.249 123.461 123.461 0 0 1 5.14 49.244v209.021h-56.86V562.322c.9-9.913-.16-19.908-3.11-29.413a75.582 75.582 0 0 0-14.11-25.977 68.785 68.785 0 0 0-49.038-16.722 82.841 82.841 0 0 0-47.991 14.629 101.331 101.331 0 0 0-32.867 38.149V770.82h-56.87V300ZM1171.09 604.661c-1.61-43.478 13.09-85.987 41.22-119.143a156.363 156.363 0 0 1 110.6-45.848c41.47 0 81.25 16.491 110.6 45.848 28.12 33.156 42.82 75.665 41.21 119.143v9.406c1.61 43.478-13.09 85.983-41.21 119.14-29.35 29.357-69.13 45.847-110.6 45.847-41.48 0-81.26-16.49-110.6-45.847-28.13-33.157-42.83-75.662-41.22-119.14v-9.406Zm58.43 9.406A147.03 147.03 0 0 0 1253 698.72a88.168 88.168 0 0 0 30.94 25.406 88.064 88.064 0 0 0 77.93 0 88.168 88.168 0 0 0 30.94-25.406 147.03 147.03 0 0 0 23.48-84.653v-9.406a147.028 147.028 0 0 0-23.48-84.653 88.171 88.171 0 0 0-30.94-25.407 88.025 88.025 0 0 0-77.93 0 88.171 88.171 0 0 0-30.94 25.407 147.028 147.028 0 0 0-23.48 84.653v9.406Z"/></g><path d="M48.406 331.867h58.43v188.121h138.772V331.867h58.952v438.422h-58.952V568.585H106.836v201.704h-58.43V331.867ZM382.291 604.652a212.422 212.422 0 0 1 30.778-119.143 95.013 95.013 0 0 1 34.669-34.101 94.815 94.815 0 0 1 93.952 0 95.016 95.016 0 0 1 34.67 34.101 212.433 212.433 0 0 1 30.256 119.143v9.406a212.423 212.423 0 0 1-30.256 119.14 95.016 95.016 0 0 1-34.67 34.101 94.825 94.825 0 0 1-46.973 12.455 94.853 94.853 0 0 1-46.979-12.455 95.013 95.013 0 0 1-34.669-34.101 212.414 212.414 0 0 1-30.778-119.14v-9.406Zm57.907 9.406a224.518 224.518 0 0 0 14.087 84.653c8.869 22.992 22.434 34.487 40.171 34.487 17.738 0 31.297-11.495 40.688-34.487a236.043 236.043 0 0 0 13.564-84.653v-9.406a236.043 236.043 0 0 0-13.564-84.653c-9.391-22.992-22.428-34.49-40.688-34.49-18.259 0-31.302 11.498-40.171 34.49a224.518 224.518 0 0 0-14.087 84.653v9.406ZM680.7 300h52.17v180.281a69.45 69.45 0 0 1 26.607-28.22 66.678 66.678 0 0 1 35.993-9.928 63.054 63.054 0 0 1 29.206 6.436 63.142 63.142 0 0 1 22.964 19.171 143.882 143.882 0 0 1 19.824 85.696v216.861h-56.862V552.393a100.488 100.488 0 0 0-8.872-48.077 28.662 28.662 0 0 0-25.562-14.629 33.843 33.843 0 0 0-14.443 3.342 33.923 33.923 0 0 0-11.642 9.198 83.116 83.116 0 0 0-18.258 31.352v236.718H680.7V300ZM941.551 604.652a212.433 212.433 0 0 1 30.256-119.143 95.04 95.04 0 0 1 34.673-34.101 94.835 94.835 0 0 1 46.98-12.455c16.47 0 32.65 4.292 46.97 12.455a95.062 95.062 0 0 1 34.67 34.101 212.464 212.464 0 0 1 30.78 119.143v9.406c1.72 41.888-9 83.344-30.78 119.14a95.062 95.062 0 0 1-34.67 34.101 94.837 94.837 0 0 1-46.97 12.455 94.846 94.846 0 0 1-46.98-12.455 95.04 95.04 0 0 1-34.673-34.101 212.423 212.423 0 0 1-30.256-119.14v-9.406Zm57.907 9.406a236.041 236.041 0 0 0 13.562 84.653c9.05 22.992 22.61 34.487 40.7 34.487 17.73 0 31.3-11.495 40.17-34.487a225.005 225.005 0 0 0 13.56-84.653v-9.406a225.005 225.005 0 0 0-13.56-84.653c-8.87-22.992-22.44-34.49-40.17-34.49-17.74 0-31.83 11.498-40.7 34.49a236.041 236.041 0 0 0-13.562 84.653v9.406Z" fill="#3C4043"/><path d="M107.232 330.232a2.501 2.501 0 0 0 0 3.536l15.91 15.91a2.501 2.501 0 0 0 3.536-3.536L112.536 332l14.142-14.142a2.501 2.501 0 0 0-3.536-3.536l-15.91 15.91Zm138.536 3.536a2.501 2.501 0 0 0 0-3.536l-15.91-15.91a2.501 2.501 0 0 0-3.536 3.536L240.464 332l-14.142 14.142a2.501 2.501 0 0 0 3.536 3.536l15.91-15.91ZM109 334.5h135v-5H109v5ZM107.232 380.232a2.501 2.501 0 0 0 0 3.536l15.91 15.91a2.501 2.501 0 0 0 3.536-3.536L112.536 382l14.142-14.142a2.501 2.501 0 0 0-3.536-3.536l-15.91 15.91Zm222.536 3.536a2.501 2.501 0 0 0 0-3.536l-15.91-15.91a2.501 2.501 0 0 0-3.536 3.536L324.464 382l-14.142 14.142a2.501 2.501 0 0 0 3.536 3.536l15.91-15.91ZM109 384.5h219v-5H109v5ZM107.232 430.232a2.501 2.501 0 0 0 0 3.536l15.91 15.91a2.501 2.501 0 0 0 3.536-3.536L112.536 432l14.142-14.142a2.501 2.501 0 0 0-3.536-3.536l-15.91 15.91Zm309.536 3.536a2.501 2.501 0 0 0 0-3.536l-15.91-15.91a2.501 2.501 0 0 0-3.536 3.536L411.464 432l-14.142 14.142a2.501 2.501 0 0 0 3.536 3.536l15.91-15.91ZM109 434.5h306v-5H109v5ZM999.232 609.232a2.501 2.501 0 0 0 0 3.536l15.908 15.91c.98.976 2.56.976 3.54 0 .97-.977.97-2.56 0-3.536L1004.54 611l14.14-14.142c.97-.976.97-2.559 0-3.536a2.506 2.506 0 0 0-3.54 0l-15.908 15.91Zm109.538 3.536c.97-.977.97-2.559 0-3.536l-15.91-15.91a2.506 2.506 0 0 0-3.54 0c-.97.977-.97 2.56 0 3.536L1103.46 611l-14.14 14.142a2.512 2.512 0 0 0 0 3.536c.98.976 2.56.976 3.54 0l15.91-15.91ZM1001 613.5h106v-5h-106v5ZM1229.23 659.232a2.512 2.512 0 0 0 0 3.536l15.91 15.91c.98.976 2.56.976 3.54 0 .97-.977.97-2.56 0-3.536L1234.54 661l14.14-14.142c.97-.976.97-2.559 0-3.536a2.506 2.506 0 0 0-3.54 0l-15.91 15.91Zm190.54 3.536c.97-.977.97-2.559 0-3.536l-15.91-15.91a2.506 2.506 0 0 0-3.54 0c-.97.977-.97 2.56 0 3.536L1414.46 661l-14.14 14.142a2.512 2.512 0 0 0 0 3.536c.98.976 2.56.976 3.54 0l15.91-15.91ZM1231 663.5h187v-5h-187v5ZM1518.23 709.232a2.512 2.512 0 0 0 0 3.536l15.91 15.91c.98.976 2.56.976 3.54 0 .97-.977.97-2.56 0-3.536L1523.54 711l14.14-14.142c.97-.976.97-2.559 0-3.536a2.506 2.506 0 0 0-3.54 0l-15.91 15.91Zm300.54 3.536c.97-.977.97-2.559 0-3.536l-15.91-15.91a2.506 2.506 0 0 0-3.54 0c-.97.977-.97 2.56 0 3.536L1813.46 711l-14.14 14.142a2.512 2.512 0 0 0 0 3.536c.98.976 2.56.976 3.54 0l15.91-15.91ZM1520 713.5h297v-5h-297v5Z" fill="#FF6D7F"/></svg>

<svg width="1920" height="1080" viewBox="0 0 1920 1080" fill="none" xmlns="http://www.w3.org/2000/svg">
<g opacity="0.33">
<path d="M48.4062 331.867H107.358V519.988H417.248V331.867H475.677V770.289H417.248V568.585H107.358V770.289H48.4062V331.867Z" fill="#3C4043"/>
<path d="M553.932 604.649C553.403 581.765 558.224 559.072 568.006 538.386C577.789 517.7 592.261 499.592 610.273 485.506C653.104 452.722 706.165 436.24 759.999 438.998C813.981 436.342 867.173 452.808 910.247 485.506C928.26 499.592 942.738 517.7 952.52 538.386C962.303 559.072 967.124 581.765 966.594 604.649V614.055C967.124 636.938 962.303 659.628 952.52 680.314C942.738 701.001 928.26 719.109 910.247 733.195C867.173 765.893 813.981 782.358 759.999 779.703C706.165 782.461 653.104 765.978 610.273 733.195C592.261 719.109 577.789 701.001 568.006 680.314C558.224 659.628 553.403 636.938 553.932 614.055V604.649ZM611.84 614.055C611.595 630.049 614.83 645.906 621.316 660.524C627.802 675.142 637.383 688.171 649.4 698.708C682.018 721.177 720.673 733.208 760.26 733.208C799.847 733.208 838.503 721.177 871.12 698.708C883.07 688.145 892.578 675.097 898.975 660.476C905.373 645.856 908.51 630.014 908.165 614.055V604.649C908.51 588.689 905.373 572.845 898.975 558.224C892.578 543.603 883.07 530.558 871.12 519.996C838.503 497.526 799.847 485.496 760.26 485.496C720.673 485.496 682.018 497.526 649.4 519.996C637.383 530.532 627.802 543.561 621.316 558.179C614.83 572.797 611.595 588.654 611.84 604.649V614.055Z" fill="#3C4043"/>
<path d="M1037.54 300H1094.41V509.021C1112.45 487.994 1134.89 471.196 1160.13 459.818C1185.37 448.44 1212.81 442.76 1240.48 443.179C1280.83 440.508 1320.74 452.784 1352.64 477.669C1367.01 493.221 1377.93 511.647 1384.68 531.733C1391.42 551.818 1393.84 573.107 1391.77 594.197V771.343H1334.91V593.674C1336.43 579.202 1334.65 564.572 1329.67 550.898C1324.7 537.224 1316.68 524.866 1306.22 514.768C1282.51 497.514 1253.56 489.022 1224.31 490.733C1197.49 490.067 1171.06 497.139 1148.14 511.11C1127.19 524.547 1109.39 542.375 1095.97 563.365V772.386H1039.11L1037.54 300Z" fill="#3C4043"/>
<path d="M1460.12 604.641C1459.59 581.758 1464.41 559.064 1474.19 538.378C1483.97 517.692 1498.44 499.584 1516.46 485.498C1560.63 455.212 1612.91 439.006 1666.44 439.006C1719.97 439.006 1772.26 455.212 1816.43 485.498C1834.44 499.584 1848.92 517.692 1858.7 538.378C1868.49 559.064 1873.31 581.758 1872.78 604.641V614.047C1873.31 636.93 1868.49 659.62 1858.7 680.307C1848.92 700.993 1834.44 719.101 1816.43 733.187C1772.26 763.473 1719.97 779.679 1666.44 779.679C1612.91 779.679 1560.63 763.473 1516.46 733.187C1498.44 719.101 1483.97 700.993 1474.19 680.307C1464.41 659.62 1459.59 636.93 1460.12 614.047V604.641ZM1518.02 614.047C1517.78 630.042 1521.01 645.898 1527.5 660.516C1533.98 675.134 1543.57 688.164 1555.58 698.7C1588.2 721.169 1626.86 733.2 1666.44 733.2C1706.03 733.2 1744.69 721.169 1777.3 698.7C1789.32 688.164 1798.91 675.134 1805.39 660.516C1811.88 645.898 1815.11 630.042 1814.87 614.047V604.641C1815.11 588.646 1811.88 572.79 1805.39 558.172C1798.91 543.553 1789.32 530.524 1777.3 519.988C1744.69 497.519 1706.03 485.488 1666.44 485.488C1626.86 485.488 1588.2 497.519 1555.58 519.988C1543.57 530.524 1533.98 543.553 1527.5 558.172C1521.01 572.79 1517.78 588.646 1518.02 604.641V614.047Z" fill="#3C4043"/>
</g>
<g opacity="0.66">
<path d="M48.4062 331.867H107.358V519.988H331.689V331.867H390.119V770.289H331.689V568.585H107.358V770.289H48.4062V331.867Z" fill="#3C4043"/>
<path d="M468.373 604.654C466.498 561.138 481.23 518.537 509.583 485.511C538.906 456.313 578.573 439.925 619.921 439.925C661.268 439.925 700.941 456.313 730.265 485.511C758.618 518.537 773.349 561.138 771.474 604.654V614.06C773.349 657.577 758.618 700.174 730.265 733.2C700.941 762.398 661.268 778.786 619.921 778.786C578.573 778.786 538.906 762.398 509.583 733.2C481.23 700.174 466.498 657.577 468.373 614.06V604.654ZM526.281 614.06C525.297 644.016 533.487 673.556 549.754 698.713C557.457 710.003 567.941 719.108 580.188 725.15C592.436 731.192 606.029 733.965 619.659 733.2C633.362 733.955 647.031 731.181 659.36 725.144C671.689 719.106 682.272 710.008 690.093 698.713C706.361 673.556 714.551 644.016 713.567 614.06V604.654C714.551 574.698 706.361 545.158 690.093 520.001C682.272 508.706 671.689 499.605 659.36 493.567C647.031 487.53 633.362 484.756 619.659 485.511C606.029 484.746 592.436 487.519 580.188 493.561C567.941 499.603 557.457 508.711 549.754 520.001C533.487 545.158 525.297 574.698 526.281 604.654V614.06Z" fill="#3C4043"/>
<path d="M842.424 300H899.294V488.117C911.091 473.91 925.875 462.493 942.592 454.677C960.537 446.232 980.151 441.943 999.977 442.133C1027.34 441.272 1053.95 451.22 1074.06 469.829C1084.92 482.467 1093.1 497.18 1098.13 513.078C1103.15 528.975 1104.9 545.728 1103.27 562.322V771.343H1046.41V562.322C1047.31 552.409 1046.25 542.414 1043.3 532.909C1040.35 523.405 1035.56 514.579 1029.19 506.932C1015.64 495.177 998.049 489.178 980.152 490.21C963.03 490.008 946.268 495.117 932.161 504.839C918.174 514.582 906.869 527.705 899.294 542.988V770.82H842.424V300Z" fill="#3C4043"/>
<path d="M1171.09 604.661C1169.48 561.183 1184.18 518.674 1212.31 485.518C1241.65 456.161 1281.43 439.67 1322.91 439.67C1364.38 439.67 1404.16 456.161 1433.51 485.518C1461.63 518.674 1476.33 561.183 1474.72 604.661V614.067C1476.33 657.545 1461.63 700.05 1433.51 733.207C1404.16 762.564 1364.38 779.054 1322.91 779.054C1281.43 779.054 1241.65 762.564 1212.31 733.207C1184.18 700.05 1169.48 657.545 1171.09 614.067V604.661ZM1229.52 614.067C1228.54 644.023 1236.73 673.563 1253 698.72C1261.23 709.451 1271.82 718.145 1283.94 724.126C1296.06 730.108 1309.4 733.216 1322.91 733.216C1336.42 733.216 1349.75 730.108 1361.87 724.126C1373.99 718.145 1384.58 709.451 1392.81 698.72C1409.08 673.563 1417.27 644.023 1416.29 614.067V604.661C1417.27 574.705 1409.08 545.164 1392.81 520.008C1384.58 509.276 1373.99 500.583 1361.87 494.601C1349.75 488.619 1336.42 485.508 1322.91 485.508C1309.4 485.508 1296.06 488.619 1283.94 494.601C1271.82 500.583 1261.23 509.276 1253 520.008C1236.73 545.164 1228.54 574.705 1229.52 604.661V614.067Z" fill="#3C4043"/>
</g>
<path d="M48.4062 331.867H106.836V519.988H245.608V331.867H304.56V770.289H245.608V568.585H106.836V770.289H48.4062V331.867Z" fill="#3C4043"/>
<path d="M382.291 604.652C380.573 562.764 391.282 521.304 413.069 485.509C421.477 471.322 433.424 459.57 447.738 451.408C462.053 443.245 478.246 438.953 494.717 438.953C511.189 438.953 527.376 443.245 541.69 451.408C556.005 459.57 567.951 471.322 576.36 485.509C597.964 521.361 608.49 562.817 606.616 604.652V614.058C608.49 655.893 597.964 697.346 576.36 733.198C567.951 747.385 556.005 759.137 541.69 767.299C527.376 775.461 511.189 779.754 494.717 779.754C478.246 779.754 462.053 775.461 447.738 767.299C433.424 759.137 421.477 747.385 413.069 733.198C391.282 697.402 380.573 655.946 382.291 614.058V604.652ZM440.198 614.058C439.407 642.921 444.191 671.665 454.285 698.711C463.154 721.703 476.719 733.198 494.456 733.198C512.194 733.198 525.753 721.703 535.144 698.711C544.794 671.561 549.392 642.869 548.708 614.058V604.652C549.392 575.841 544.794 547.149 535.144 519.999C525.753 497.007 512.716 485.509 494.456 485.509C476.197 485.509 463.154 497.007 454.285 519.999C444.191 547.045 439.407 575.789 440.198 604.652V614.058Z" fill="#3C4043"/>
<path d="M680.7 300H732.87V480.281C738.883 468.535 748.112 458.745 759.477 452.061C770.289 445.391 782.773 441.946 795.47 442.133C805.578 441.904 815.597 444.113 824.676 448.569C833.754 453.025 841.627 459.6 847.64 467.74C863.029 493.528 869.963 523.497 867.464 553.436V770.297H810.602V552.393C811.648 535.881 808.599 519.364 801.73 504.316C799.187 499.792 795.469 496.042 790.968 493.466C786.467 490.89 781.351 489.585 776.168 489.687C771.166 489.72 766.234 490.861 761.725 493.029C757.215 495.197 753.238 498.339 750.083 502.227C741.764 511.203 735.53 521.908 731.825 533.579V770.297H680.7V300Z" fill="#3C4043"/>
<path d="M941.551 604.652C939.677 562.817 950.203 521.361 971.807 485.509C980.215 471.322 992.168 459.57 1006.48 451.408C1020.8 443.245 1036.98 438.953 1053.46 438.953C1069.93 438.953 1086.11 443.245 1100.43 451.408C1114.74 459.57 1126.69 471.322 1135.1 485.509C1156.88 521.304 1167.6 562.764 1165.88 604.652V614.058C1167.6 655.946 1156.88 697.402 1135.1 733.198C1126.69 747.385 1114.74 759.137 1100.43 767.299C1086.11 775.461 1069.93 779.754 1053.46 779.754C1036.98 779.754 1020.8 775.461 1006.48 767.299C992.168 759.137 980.215 747.385 971.807 733.198C950.203 697.346 939.677 655.893 941.551 614.058V604.652ZM999.458 614.058C998.774 642.869 1003.37 671.561 1013.02 698.711C1022.07 721.703 1035.63 733.198 1053.72 733.198C1071.45 733.198 1085.02 721.703 1093.89 698.711C1103.79 671.627 1108.4 642.886 1107.45 614.058V604.652C1108.4 575.824 1103.79 547.083 1093.89 519.999C1085.02 497.007 1071.45 485.509 1053.72 485.509C1035.98 485.509 1021.89 497.007 1013.02 519.999C1003.37 547.149 998.774 575.841 999.458 604.652V614.058Z" fill="#3C4043"/>
<path d="M107.232 330.232C106.256 331.209 106.256 332.791 107.232 333.768L123.142 349.678C124.118 350.654 125.701 350.654 126.678 349.678C127.654 348.701 127.654 347.118 126.678 346.142L112.536 332L126.678 317.858C127.654 316.882 127.654 315.299 126.678 314.322C125.701 313.346 124.118 313.346 123.142 314.322L107.232 330.232ZM245.768 333.768C246.744 332.791 246.744 331.209 245.768 330.232L229.858 314.322C228.882 313.346 227.299 313.346 226.322 314.322C225.346 315.299 225.346 316.882 226.322 317.858L240.464 332L226.322 346.142C225.346 347.118 225.346 348.701 226.322 349.678C227.299 350.654 228.882 350.654 229.858 349.678L245.768 333.768ZM109 334.5L244 334.5L244 329.5L109 329.5L109 334.5Z" fill="#FF6D7F"/>
<path d="M107.232 380.232C106.256 381.209 106.256 382.791 107.232 383.768L123.142 399.678C124.118 400.654 125.701 400.654 126.678 399.678C127.654 398.701 127.654 397.118 126.678 396.142L112.536 382L126.678 367.858C127.654 366.882 127.654 365.299 126.678 364.322C125.701 363.346 124.118 363.346 123.142 364.322L107.232 380.232ZM329.768 383.768C330.744 382.791 330.744 381.209 329.768 380.232L313.858 364.322C312.882 363.346 311.299 363.346 310.322 364.322C309.346 365.299 309.346 366.882 310.322 367.858L324.464 382L310.322 396.142C309.346 397.118 309.346 398.701 310.322 399.678C311.299 400.654 312.882 400.654 313.858 399.678L329.768 383.768ZM109 384.5L328 384.5L328 379.5L109 379.5L109 384.5Z" fill="#FF6D7F"/>
<path d="M107.232 430.232C106.256 431.209 106.256 432.791 107.232 433.768L123.142 449.678C124.118 450.654 125.701 450.654 126.678 449.678C127.654 448.701 127.654 447.118 126.678 446.142L112.536 432L126.678 417.858C127.654 416.882 127.654 415.299 126.678 414.322C125.701 413.346 124.118 413.346 123.142 414.322L107.232 430.232ZM416.768 433.768C417.744 432.791 417.744 431.209 416.768 430.232L400.858 414.322C399.882 413.346 398.299 413.346 397.322 414.322C396.346 415.299 396.346 416.882 397.322 417.858L411.464 432L397.322 446.142C396.346 447.118 396.346 448.701 397.322 449.678C398.299 450.654 399.882 450.654 400.858 449.678L416.768 433.768ZM109 434.5L415 434.5L415 429.5L109 429.5L109 434.5Z" fill="#FF6D7F"/>
<path d="M999.232 609.232C998.256 610.209 998.256 611.791 999.232 612.768L1015.14 628.678C1016.12 629.654 1017.7 629.654 1018.68 628.678C1019.65 627.701 1019.65 626.118 1018.68 625.142L1004.54 611L1018.68 596.858C1019.65 595.882 1019.65 594.299 1018.68 593.322C1017.7 592.346 1016.12 592.346 1015.14 593.322L999.232 609.232ZM1108.77 612.768C1109.74 611.791 1109.74 610.209 1108.77 609.232L1092.86 593.322C1091.88 592.346 1090.3 592.346 1089.32 593.322C1088.35 594.299 1088.35 595.882 1089.32 596.858L1103.46 611L1089.32 625.142C1088.35 626.118 1088.35 627.701 1089.32 628.678C1090.3 629.654 1091.88 629.654 1092.86 628.678L1108.77 612.768ZM1001 613.5L1107 613.5L1107 608.5L1001 608.5L1001 613.5Z" fill="#FF6D7F"/>
<path d="M1229.23 659.232C1228.26 660.209 1228.26 661.791 1229.23 662.768L1245.14 678.678C1246.12 679.654 1247.7 679.654 1248.68 678.678C1249.65 677.701 1249.65 676.118 1248.68 675.142L1234.54 661L1248.68 646.858C1249.65 645.882 1249.65 644.299 1248.68 643.322C1247.7 642.346 1246.12 642.346 1245.14 643.322L1229.23 659.232ZM1419.77 662.768C1420.74 661.791 1420.74 660.209 1419.77 659.232L1403.86 643.322C1402.88 642.346 1401.3 642.346 1400.32 643.322C1399.35 644.299 1399.35 645.882 1400.32 646.858L1414.46 661L1400.32 675.142C1399.35 676.118 1399.35 677.701 1400.32 678.678C1401.3 679.654 1402.88 679.654 1403.86 678.678L1419.77 662.768ZM1231 663.5L1418 663.5L1418 658.5L1231 658.5L1231 663.5Z" fill="#FF6D7F"/>
<path d="M1518.23 709.232C1517.26 710.209 1517.26 711.791 1518.23 712.768L1534.14 728.678C1535.12 729.654 1536.7 729.654 1537.68 728.678C1538.65 727.701 1538.65 726.118 1537.68 725.142L1523.54 711L1537.68 696.858C1538.65 695.882 1538.65 694.299 1537.68 693.322C1536.7 692.346 1535.12 692.346 1534.14 693.322L1518.23 709.232ZM1818.77 712.768C1819.74 711.791 1819.74 710.209 1818.77 709.232L1802.86 693.322C1801.88 692.346 1800.3 692.346 1799.32 693.322C1798.35 694.299 1798.35 695.882 1799.32 696.858L1813.46 711L1799.32 725.142C1798.35 726.118 1798.35 727.701 1799.32 728.678C1800.3 729.654 1801.88 729.654 1802.86 728.678L1818.77 712.768ZM1520 713.5L1817 713.5L1817 708.5L1520 708.5L1520 713.5Z" fill="#FF6D7F"/>
</svg>
